X:1
T:Butter Fingers
T:Butter Fingers
T:(A Soft Spread)
T:By Pete Wendling and Max Kortlander
T:Copyright 1924 by Pete Wendling &amp; Max Kortlander
T:Copyright 1924 by Pete Wendling &amp; Max Kortlander
T:Copyright 1924 by Pete Wendling &amp; Max Kortlander
T:Copyright 1924 by Pete Wendling &amp; Max Kortlander
T:Copyright 1924 by Pete Wendling &amp; Max Kortlander
C:By Pete Wendling
Z:Copyright 1924 by Pete Wendling & Max Kortlander
%%score { ( 1 4 ) | ( 2 3 ) }
L:1/8
Q:1/4=180
M:2/2
K:F
V:1 treble nm="Piano" snm="Pno."
V:4 treble 
V:2 bass 
V:3 bass 
V:1
!ff! .[cc']<.[dd'].[cc']/ || !>![E_Be] !>![F=Bf]2 !>![^F=c^f]- [Fcf]>.[cc'].[=d=d']>.[cc'] | %2
 !>![G^cg] !>![_A=d_a]2 !>![=A^d=a]- [Ada]>.[=d=d'].[=e=e']>.[dd'] | %3
 !>![=Bf=b] !>![c_gc']2 !>![^c=g^c']-!<(! !>![cgc'][=d_a=d'] !>![^d=a^d']2!<)! | %4
!sfz! [e_be']4-!>(! .[ebe'] z/ (c<!>)!dc/) |:!mf! !>!E !>!F2 !>!^F- F>(cd>c) | %6
 !>!^F !>!G2 !>!^G- G>(cd>c) | !>!^G>A[FAce]>G .A !>![FAce]2 .A | d8 | %9
 !>!^F>(G[E_Be]>F) .G !>![EBe]2 .G | !>!d4- d>(c!f!!<(!d>e)!<)! |"_cresc." .f.c.d.f ._d._e.f.=d | %12
"_dim." ._e.f._d._e f z/ (c<=dc/) | !>!E !>!F2 !>!^F- F>(cd>c) | !>!^F !>!G2 !>!^G- G>(cd>c) | %15
 !>!^G>A[FAce]>G .A !>![FAce]2 .A | !>!d4- d>cd>^d | !>!e>^de>a !>!g3 a | z8 | %19
 !>![ce]>^d[ce]>a !>![=dg]d/^d/ e[EG_Bc]- | [EGBc]4- [EGBc] z/ (c<dc/) | %21
!mf! !>!E !>!F2 !>!^F- F>(cd>c) | !>!^F !>!G2 !>!^G- G>(cd>c) | !>!^G>A[FAce]>G .A !>![FAce]2 .A | %24
 d8 | !>!^F>(G[E_Be]>F) .G !>![EBe]2 .G | !>!d8 | !>!^G>A[FAce]>G .A !>![FAce]2 .A | %28
 !>!d4- d>fg>f | A !>!!courtesy!_B2 !>!=B- B>fg>f | !>!=B !>!c2 !>!^c- c>fg>f | %31
 !>!^c>da>g f(3d/f/d/ =c>B |!sfz! z !>![Bdg]2 !>![Bdg]- [Bdg] z/ c<dc/ | %33
 !>!E !>!F2 !>!^F- F>(cd>c) | !>!^F !>!G2 !>![EBd]- [EBd]>c!>![EBd]>c |1 !>!f>d c2- c>FD>C | %36
 !>!F>D C2!sfz! !^!F z/ .[ff']<.[ff'].[ff']/ :|2 !>!f>d c2- c>FD>C | %38
 !>!F>D C2!sfz! !^!F z z2!fine! || %39
!ff! !>![ff']!<(! (3c'/d'/e'/ [ff']2- [ff']>!<)!.[ff'].[ff']>.[ff'] | %40
 !>![ff'] !>![dd']2 !>![cc']- [cc']>!>(!.[cc'].[cc']>.[cc']!>)! | %41
!<(! [cc'] (3g/a/b/ [cc']2-!<)! [cc']>.[cc'].[cc']>.[cc'] | %42
 !>![cc'] !>![Aa]2!>(! !>![Gg]- [Gg]2 !>![A^cea]2!>)! | .[FAdf]2 .[G^ceg]2 .[Adfa] [=cfac']3 | %44
 [Adfa] [=Bd^g=b]2 [ceac']- [ceac']4 |!8va(! .[dg=bd']2 .[egbe']2 .[fbd'f'] !>![gbd'g']3 | %46
 !>![eb_c'e'] !>![dgbd']2 !>![cgb=c']- [cgbc']!8va)! z/ .[ff']<.[ff'].[ff']/ | %47
!ff! !>![ff']!<(! (3c'/d'/e'/ [ff']2- [ff']>!<)!.[ff'].[ff']>.[ff'] | %48
 !>![ff'] !>![dd']2 !>![cc']- [cc']>!>(!.[cc'].[cc']>.[cc']!>)! | %49
!<(! [cc'] (3g/a/b/ [cc']2-!<)! [cc']>.[cc'].[cc']>.[cc'] | %50
 !>![cc'] !>![Aa]2!>(! !>![Gg]- [Gg]2 !>![A^cea]2!>)! | .[FAdf]2 .[G^ceg]2 .[Adfa] [=cfac']3 | %52
!sfz! [f_a_d'f']4- [fad'f']>f=g>^g | [cf=a]>d'c'>a .e !>![ebd']2 .[ebc'] | %54
 !^![fac'f']2 z2 !arpeggio!!^![fac'f'] z/ (c<dc/) |!f! !>!E !>!F2 !>!^F- F>(cd>c) | %56
 !>!^F !>!G2 !>!^G- G>(cd>c) | !>!^G>A[FAce]>G .A !>![FAce]2 .A | d8 | %59
 !>!^F>(G[E_Be]>F) .G !>![EBe]2 .G | !>!d4- d>(c!f!!<(!d>e)!<)! |"_cresc." .f.c.d.f ._d._e.f.=d | %62
"_dim." ._e.f._d._e f z/ (c<=dc/) | !>!E !>!F2 !>!^F- F>(cd>c) | !>!^F !>!G2 !>!^G- G>(cd>c) | %65
 !>!^G>A[FAce]>G .A !>![FAce]2 .A | !>!d4- d>cd>^d | !>!e>^de>a !>!g3 a | z8 | %69
 !>![ce]>^d[ce]>a !>![=dg]d/^d/ e[EG_Bc]- | [EGBc]4- [EGBc] z/ (c<dc/) | %71
!mf! !>!E !>!F2 !>!^F- F>(cd>c) | !>!^F !>!G2 !>!^G- G>(cd>c) | !>!^G>A[FAce]>G .A !>![FAce]2 .A | %74
 d8 | !>!^F>(G[E_Be]>F) .G !>![EBe]2 .G | !>!d8 | !>!^G>A[FAce]>G .A !>![FAce]2 .A | %78
 !>!d4- d>fg>f | A !>!!courtesy!_B2 !>!=B- B>fg>f | !>!=B !>!c2 !>!^c- c>fg>f | %81
 !>!^c>da>g f(3d/f/d/ =c>B |!sfz! z !>![Bdg]2 !>![Bdg]- [Bdg] z/ c<dc/ | %83
 !>!E !>!F2 !>!^F- F>(cd>c) | !>!^F !>!G2 !>![EBd]- [EBd]>c!>![EBd]>c | %85
 (!>![FAf]>c)(!>![Fd]>A) !>![E^Gc] !>![EGd]2 !>!c | %86
!sfz! !arpeggio!!^![FAcf] z [FAcf]2 [G_B=eg]2 [A_efa]2 |: %87
[K:Bb]S!mf!!ff! !>![Bdfb]2"_-" z2 z3/2 (b<[dfd']b/) | !>![c^fac'] !>![Acfa]2 !>![^Fcd^f]- [Fcdf]4 | %89
 z3/2 d<[G=B=fg]!courtesy!=B/ .d !>![GBfg]2 .d | %90
 !>![EGce] !>![DF=Bd]2 !>![CEGc]- [CEGc]>(([Cc][Dd]>[Ee])) | !>![Ff]4- [Ff]>.[Ff].[Gg]>.[Aa] | %92
 [Bb]4- [Bb]>.[Aa].[Bb]>.[=B=b] | !>![cc']2 [dd']!>![cc']- [cc'] [Bb]2 .[Gg] | %94
 !>![Aa]2 !>![Bb]!>![cc']- [cc']>(([Ff][Gg]>[Aa])) | !>![Bdfb]2 z2 z3/2 (b<[dfd']b/) | %96
 !>![c^fac'] !>![Acfa]2 !>![^Fcd^f]- [Fcdf]4 | z3/2 d<[G=B=fg]!courtesy!=B/ .d !>![GBfg]2 .d | %98
 !>![EGce] !>![DF=Bd]2 !>![CEGc]- [CEGc]2 !arpeggio!!>![FAef]2 | z8 | z (3d/e/=e/ (!>!f>g f>dc>B) | %101
 z8 | z (3B/=B/c/ (!>!_d>_e d>_B_A>_G) | !>![FB=d]2 z !>![=DFB]- !tenuto![DFB]4 | %104
 z3/2 .d<.[FA_ef].c/ .d !>![FAef]2 .c |{/^c} !>![Fd]{/c} !>![Fd]2 !>![DB]- [DB]4 | %106
 z3/2 .d<.[FA_ef].c/ .d !>![FAef]2 .c | [FBdf]4 [^FAd^f]4 | %108
 ([G=Bdg]d[GBdf])[Fce]- [Fce](3(G/A/G/ ^FG) | (!>![=E_Bd]^c[EBd]!>![_EA=cf]-) [EAcf]^c !>![FAd]2 | %110
 !>![DFB]3/2 a/4g/4 !>!f>g!sfz! !^!b2 z2 |] %111
V:2
 z/ z2 || !>![G,^C] !>![_A,=D]2 !>![=A,^D]- !tenuto![A,D]4 | %2
 !>![_B,=E] !>![=B,F]2 !>![C^F]- !tenuto![CF]4 | %3
[K:treble] [DG] [_E_A]2 [=E=A]- [EA][=F_B] [^F=B]2 | [Gc]4[K:bass] !^!C,, z z2 |: %5
{/C,,} E,4{/C,,} ^F,4 |{/C,,} G,4{/C,,} ^G,4 | !arpeggio![F,,C,A,]2 [A,CF]2 [C,,C,]2 [A,CF]2 | %8
 !arpeggio![F,,C,A,]2 [A,CF]2 !>![A,,A,]2 !>![_A,,_A,]2 | %9
 [G,,G,]2 [G,!courtesy!_B,C]2 [C,,C,]2 [G,B,C]2 | [G,,G,]2 [G,B,C]2 [C,,C,]2 [G,B,C]2 | %11
[K:treble] !>![CF]3 !>![_D=G]- [DG]2 [=D^G]2- | !>![DG] ((!>![_D=G]3 .[CF])) z z2 | %13
[K:bass]{/C,,} E,4{/C,,} ^F,4 |{/C,,} G,4{/C,,} ^G,4 | %15
 !arpeggio![F,,C,A,]2 [A,CF]2 [C,,C,]2 [A,CF]2 | !arpeggio![F,,C,A,]2 [A,CF]2 !>![A,,A,]2 [A,CF]2 | %17
 !arpeggio!!>![C,G,E] z z2 z4 | z8 | [^F,CE]4 [=F,=B,D]4 | %20
 .[E,_B,C]3/2 D,,/4^D,,/4 E,,!^!C,,- C,, z z2 |{/C,,} E,4{/C,,} ^F,4 |{/C,,} G,4{/C,,} ^G,4 | %23
 !arpeggio![F,,C,A,]2 [A,CF]2 [C,,C,]2 [A,CF]2 | %24
 !arpeggio![F,,C,A,]2 [A,CF]2 !>![A,,A,]2 !>![_A,,_A,]2 | %25
 [G,,G,]2 [G,!courtesy!_B,C]2 [C,,C,]2 [G,B,C]2 | [G,,G,]2 [G,B,C]2 [C,,C,]2 [G,B,C]2 | %27
 [F,,F,]2 [A,CF]2 [C,,C,]2 [A,CF]2 | [F,,F,]2 [A,CF]2 !>![A,,A,]2 [A,CF]2 |{/F,,} A,4{/F,,} =B,4 | %30
{/F,,} C4{/F,,} ^C4 | !arpeggio![B,,F,D] z z2 z4 | !arpeggio![G,,D,_B,]4- [G,,D,B,] z z2 | %33
{/C,,} E,4{/C,,} ^F,4 |{/C,,} G,4 [C,,C,]2 [G,B,CE]2 |1 !arpeggio![F,,C,A,] z z2 z4 | %36
 z2 !>![C,,C,]2 !^![F,,,F,,] z z2 :|2 !arpeggio![F,,C,A,] z z2 z4 | %38
 z2 !>![C,,C,]2 !^![F,,,F,,] z z2 || z2[K:treble] ((!>![c_e]2 [=Bd]2 [_B_d]2 | %40
 [Ac]2 [^G=B]2 [=G_B])) z z2 | z2 ((!>![G_B]2 [^F=A]2 [=F_A]2 | [EG]2 [^D^F]2 [=D=F]2 !>![^CE]2)) | %43
[K:bass]{/D,,-} .[D,,D,]2{/E,,-} .[E,,E,]2{/F,,-} .[F,,F,]2{/A,,-} .[A,,A,]2 | %44
{/F,,-} !>![F,,F,]2{/E,,-} !>![E,,E,]2{/A,,-} !>![A,,A,]2 .[A,CE]2 | %45
 .[=F,=F]2{/E,-} .[E,E]2{/D,-} .[D,D]2{/G,,-} .[G,,G,]2 | %46
 !>![C,,C,] !>![D,,D,]2 [E,,E,]- [E,,E,] z z2 | z2[K:treble] ((!>![c_e]2 [=Bd]2 [_B_d]2 | %48
 [Ac]2 [^G=B]2 [=G_B])) z z2 | z2 ((!>![G_B]2 [^F=A]2 [=F_A]2 | [EG]2 [^D^F]2 [=D=F]2 !>![^CE]2)) | %51
[K:bass]{/D,,-} .[D,,D,]2{/E,,-} .[E,,E,]2{/F,,-} .[F,,F,]2{/A,,-} .[A,,A,]2 | %52
 (3(!>!_D,,_A,,_D, (3=F,_A,_D F) z z2 | [C,,C,]2 [A,CF]2 [C,,C,]2 [A,CF]2 | %54
 [F,,F,]2 C,2 [F,,C,A,] z z2 |{/C,,} E,4{/C,,} ^F,4 |{/C,,} G,4{/C,,} ^G,4 | %57
 !arpeggio![F,,C,A,]2 [A,CF]2 [C,,C,]2 [A,CF]2 | %58
 !arpeggio![F,,C,A,]2 [A,CF]2 !>![A,,A,]2 !>![_A,,_A,]2 | %59
 [G,,G,]2 [G,!courtesy!_B,C]2 [C,,C,]2 [G,B,C]2 | [G,,G,]2 [G,B,C]2 [C,,C,]2 [G,B,C]2 | %61
[K:treble] !>![CF]3 !>![_D=G]- [DG]2 [=D^G]2- | !>![DG] ((!>![_D=G]3 .[CF])) z z2 | %63
[K:bass]{/C,,} E,4{/C,,} ^F,4 |{/C,,} G,4{/C,,} ^G,4 | %65
 !arpeggio![F,,C,A,]2 [A,CF]2 [C,,C,]2 [A,CF]2 | !arpeggio![F,,C,A,]2 [A,CF]2 !>![A,,A,]2 [A,CF]2 | %67
 !arpeggio!!>![C,G,E] z z2 z4 | z8 | [^F,CE]4 [=F,=B,D]4 | %70
 .[E,_B,C]3/2 D,,/4^D,,/4 E,,!^!C,,- C,, z z2 |{/C,,} E,4{/C,,} ^F,4 |{/C,,} G,4{/C,,} ^G,4 | %73
 !arpeggio![F,,C,A,]2 [A,CF]2 [C,,C,]2 [A,CF]2 | %74
 !arpeggio![F,,C,A,]2 [A,CF]2 !>![A,,A,]2 !>![_A,,_A,]2 | %75
 [G,,G,]2 [G,!courtesy!_B,C]2 [C,,C,]2 [G,B,C]2 | [G,,G,]2 [G,B,C]2 [C,,C,]2 [G,B,C]2 | %77
 [F,,F,]2 [A,CF]2 [C,,C,]2 [A,CF]2 | [F,,F,]2 [A,CF]2 !>![A,,A,]2 [A,CF]2 |{/F,,} A,4{/F,,} =B,4 | %80
{/F,,} C4{/F,,} ^C4 | !arpeggio![B,,F,D] z z2 z4 | !arpeggio![G,,D,_B,]4- [G,,D,B,] z z2 | %83
{/C,,} E,4{/C,,} ^F,4 |{/C,,} G,4 [C,,C,]2 [G,B,CE]2 | !arpeggio!!>![F,,C,A,] z z2 z4 | %86
 !arpeggio!!^![F,,C,A,] z [F,,F,]2 [=E,,=E,]2 [_E,,_E,]2 |: %87
[K:Bb] !>![D,,D,]2 [D,B,D]2 F,,2 [F,B,D]2 | %88
 [D,,D,]2 [D,^F,C]2 z3/2 !>![D,,D,]<!>![^C,,^C,]!>![=C,,=C,]/ | %89
 !>![=B,,,=B,,]2 [G,=B,F]2 G,,2 [G,B,F]2 | !>![C,,C,] !>![D,,D,]2 !>![E,,E,]- [E,,E,] z z2 | %91
 [F,,F,]2 [F,A,E]2 [F,,F,]2 [_E,,_E,]2 | [D,,D,]2 [F,B,D]2 [G,,G,]2 [G,B,D]2 | %93
 !arpeggio![C,,G,,=E,]2 z [G,B,=E]- [G,B,E]2 [C,,C,]2 | %94
 !arpeggio![F,,C,A,]2 z [F,A,_E]- [F,A,E]2 [!courtesy!_E,,!courtesy!_E,]2 | %95
 [D,,D,]2 [D,B,D]2 F,,2 [F,B,D]2 | [D,,D,]2 [D,^F,C]2 z3/2 !>![D,,D,]<!>![^C,,^C,]!>![=C,,=C,]/ | %97
 !>![=B,,,=B,,]2 [G,=B,F]2 G,,2 [G,B,F]2 | %98
 !>![C,,C,] !>![D,,D,]2 !>![E,,E,]- [E,,E,]2 !arpeggio!!>![F,,C,A,]2 | %99
 .[B,DF]2 .[A,DF]2 .[B,DF]2 .[A,DF]2 | [_A,B,DF]8 | .[G,B,E]2 .[^F,B,E]2 .[G,B,E] .[_G,B,E]3 | %102
 [_F,_G,B,_D]8 | !>![=F,,=F,]2 .[F,B,=D]2 z !>![B,,B,]2 !>![^G,,^G,] | %104
 !>![A,,A,] z (!tenuto![F,,F,]2 !tenuto![=E,,=E,]2 !tenuto![_E,,_E,]2) | %105
 !>![D,,D,]2 .[F,B,D]2 z !>![B,,B,]2 !>![^G,,^G,] | %106
 !>![A,,A,] z (!tenuto![F,,F,]2 !tenuto![=E,,=E,]2 !tenuto![_E,,_E,]2) | %107
 [D,,D,]2 [F,B,D]2 [C,,C,]2 [^F,A,CD]2 | !>![=B,,,=B,,]2 !>![G,,,G,,]2 [C,,C,] z z2 | %109
 !arpeggio![C,,G,,=E,]2 [G,B,C]2 !arpeggio![F,,C,=A,]2 [F,A,!courtesy!_E]2 | %110
 !>![B,,B,]2 !>![F,,F,]2 !^![B,,,B,,]2"_D.S. al       Fine" !fermata!z2 |] %111
V:3
 x5/2 || x8 | x8 |[K:treble] x8 | x4[K:bass] x4 |: z2 .[G,_B,CE]2 z2 .[^F,CE]2 | %6
 z2 .[G,B,CE]2 z2 .[^G,CE]2 | x8 | x8 | x8 | x8 |[K:treble] x8 | x8 | %13
[K:bass] z2 .[G,_B,CE]2 z2 .[^F,CE]2 | z2 .[G,B,CE]2 z2 .[^G,CE]2 | x8 | x8 | x8 | x8 | x8 | x8 | %21
 z2 .[G,_B,CE]2 z2 .[^F,CE]2 | z2 .[G,B,CE]2 z2 .[^G,CE]2 | x8 | x8 | x8 | x8 | x8 | x8 | %29
 z2 .[A,_EF]2 z2 .[=B,DF]2 | z2 .[A,_EF]2 z2 .[A,^CF]2 | x8 | x8 | z2 .[G,_B,CE]2 z2 .[^F,CE]2 | %34
 z2 .[G,B,CE]2 x4 |1 x8 | x8 :|2 x8 | x8 || x2[K:treble] x6 | x8 | x8 | x8 |[K:bass] x8 | x8 | x8 | %46
 x8 | x2[K:treble] x6 | x8 | x8 | x8 |[K:bass] x8 | x8 | x8 | x8 | z2 .[G,_B,CE]2 z2 .[^F,CE]2 | %56
 z2 .[G,B,CE]2 z2 .[^G,CE]2 | x8 | x8 | x8 | x8 |[K:treble] x8 | x8 | %63
[K:bass] z2 .[G,_B,CE]2 z2 .[^F,CE]2 | z2 .[G,B,CE]2 z2 .[^G,CE]2 | x8 | x8 | x8 | x8 | x8 | x8 | %71
 z2 .[G,_B,CE]2 z2 .[^F,CE]2 | z2 .[G,B,CE]2 z2 .[^G,CE]2 | x8 | x8 | x8 | x8 | x8 | x8 | %79
 z2 .[A,_EF]2 z2 .[=B,DF]2 | z2 .[A,_EF]2 z2 .[A,^CF]2 | x8 | x8 | z2 .[G,_B,CE]2 z2 .[^F,CE]2 | %84
 z2 .[G,B,CE]2 x4 | x8 | x8 |:[K:Bb] x8 | x8 | x8 | x8 | x8 | x8 | x8 | x8 | x8 | x8 | x8 | x8 | %99
 x8 | x8 | x8 | x8 | x8 | x8 | x8 | x8 | x8 | x8 | x8 | x8 |] %111
V:4
 x5/2 || x8 | x8 | x8 | x8 |: x8 | x8 | x8 | !>![FA]2 z !>![FA]- !tenuto![FA]4 | x8 | %10
 !>![EGB]2 z !>![EGB]- !tenuto![EGB]4 | !>!A3 !courtesy!_B- B2 !>!=B2- | B (!courtesy!_B3 A) z z2 | %13
 x8 | x8 | x8 | !>![FA]2 z !>![FA]- !tenuto![FA]4 | [Gc] z z2 !>![=d_e]4 | ^d>ec>A G>Ac>=d | x8 | %20
 x6 z2 | x8 | x8 | x8 | !>![FA]2 z !>![FA]- !tenuto![FA]4 | x8 | %26
 !>![EGB]2 z !>![EGB]- !tenuto![EGB]4 | x8 | !>![FA]2 z !>![FA]- !tenuto![FA]4 | x8 | x8 | x8 | %32
 !>!G4- G z z2 | x8 | x8 |1 !>!A>=G- G>^G .A z z2 | A,>=G,- G,>^G, A, x3 :|2 %37
 !>!A>=G- G>^G .A z z2 | A,>=G,- G,>^G, A, x3 || x8 | x8 | x8 | x8 | x8 | x8 |!8va(! x8 | %46
 x5!8va)! x3 | x8 | x8 | x8 | x8 | x8 | x8 | x8 | x8 | x8 | x8 | x8 | %58
 !>![FA]2 z !>![FA]- !tenuto![FA]4 | x8 | !>![EGB]2 z !>![EGB]- !tenuto![EGB]4 | %61
 !>!A3 !courtesy!_B- B2 !>!=B2- | B (!courtesy!_B3 A) z z2 | x8 | x8 | x8 | %66
 !>![FA]2 z !>![FA]- !tenuto![FA]4 | [Gc] z z2 !>![=d_e]4 | ^d>ec>A G>Ac>=d | x8 | x6 z2 | x8 | %72
 x8 | x8 | !>![FA]2 z !>![FA]- !tenuto![FA]4 | x8 | !>![EGB]2 z !>![EGB]- !tenuto![EGB]4 | x8 | %78
 !>![FA]2 z !>![FA]- !tenuto![FA]4 | x8 | x8 | x8 | !>!G4- G z z2 | x8 | x8 | x8 | x8 |:[K:Bb] x8 | %88
 x8 | x8 | x8 | !>![Ae]2 z [Ae]- [Ae]2 x2 | !>![df]2 z !>![dg]- [dg]2 x2 | %93
 z !>![=egb] z z [egb]z[eg] z | z !>![ef] z z !>![ef] x3 | x8 | x8 | x8 | x8 | x8 | x8 | x8 | x8 | %103
 x8 | x8 | x8 | x8 | x8 | x8 | x8 | x2 [Ae]2 !^![Bd]2 x2 |] %111

